mimetypes/16/text-x-c++src.svg

<svg width="16" version="1.1" xmlns="http://www.w3.org/2000/svg" height="16">
<defs id="defs3051">
<style type="text/css" id="current-color-scheme">
.ColorScheme-Text {
color:#4d4d4d;
}
</style>
</defs>
<path style="fill:currentColor;fill-opacity:1" d="m 1,1 v 14 h 14 v -14 h -14 z  m 10,2 h 1 l -.0176,1.9902 2.0176,.0098 v 1 h -2 v 2 l -.0176,1.9902 2.0176,.0098 v 1 h -2 v 2 h -1 v -2 h -2 v -1 h 2 v -2 -2 h -2 v -1 h 2 v -2 z  m -5.1777,1.5 c 0.3937,0 0.770609,0.0425978 1.13281,0.126953 0.362204,0.0843553 0.711065,0.209302 1.04492,0.375 v 1.39648 c -0.337008,-0.219926 -0.668536,-0.381944 -0.996094,-0.484375 -0.327558,-0.102431 -0.672952,-0.152344 -1.03516,-0.152344 -0.648818,0 -1.1596,0.198028 -1.53125,0.595703 -0.371653,0.397675 -0.556641,0.945587 -0.556641,1.64453 0,0.695932 0.184988,1.24295 0.556641,1.64062 0.371653,0.397676 0.882432,0.595703 1.53125,0.595703 0.362204,0 0.707598,-0.049913 1.03516,-0.152343 0.327558,-0.102433 0.659086,-0.264449 0.996094,-0.484376 v 1.39648 c -0.333857,0.165698 -0.682717,0.290645 -1.04492,0.375 -0.362204,0.084355 -0.739113,0.126953 -1.13281,0.126953 -1.1748,0 -2.10636,-0.312814 -2.79297,-0.939453 -0.686613,-0.629653 -1.0293,-1.48306 -1.0293,-2.55859 0,-1.07854 0.342684,-1.93 1.0293,-2.55664 0.686613,-0.629652 1.61817,-0.945312 2.79297,-0.945312 z " class="ColorScheme-Text"/>
</svg>

<svg width="16" version="1.1" xmlns="http://www.w3.org/2000/svg" height="16">
<defs id="defs3051">
<style type="text/css" id="current-color-scheme">
.ColorScheme-Text {
color:#4d4d4d;
}
</style>
</defs>
<path style="fill:currentColor;fill-opacity:1" d="M 1,1 V 15 H 15 V 1 Z m 10,2 h 1 L 11.9824,4.9902 14,5 V 6 H 12 V 8 L 11.9824,9.9902 14,10 v 1 h -2 v 2 H 11 V 11 H 9 v -1 h 2 V 8 6 H 9 V 5 h 2 z M 5.8223,4.5 c 0.3937,0 0.770609,0.042598 1.13281,0.126953 0.362204,0.084355 0.711065,0.209302 1.04492,0.375 v 1.39648 C 7.663022,6.178507 7.331494,6.016489 7.003936,5.914058 6.676378,5.811627 6.462208,5.761714 6.1,5.761714 5.451182,5.761714 4.97165,5.959742 4.6,6.357417 4.228347,6.755092 4,7.303004 4,8.001947 c 0,0.695932 0.228347,1.24295 0.6,1.64062 0.371653,0.397676 0.851182,0.595703 1.5,0.595703 0.362204,0 0.576374,-0.04991 0.903936,-0.152343 C 7.331494,9.983494 7.663022,9.821478 8,9.601551 v 1.39648 c -0.333857,0.165698 -0.682717,0.290645 -1.04492,0.375 -0.362204,0.08436 -0.739113,0.126953 -1.13281,0.126953 -1.1748,0 -2.10636,-0.312814 -2.79297,-0.939453 -0.686613,-0.629653 -1.0293,-1.48306 -1.0293,-2.55859 0,-1.07854 0.342684,-1.93 1.0293,-2.55664 C 3.715943,4.815649 4.6475,4.5 5.8223,4.5 Z" class="ColorScheme-Text"/>
</svg>
